X: 1
T:Reel
T:(The Swallow's Tail)
B:Joyce, P. W.; "Old Irish Folk Music and Songs"
R:reel
A:Kilkenny
O:Irish
L:1/8
M:C|
K:G
cB|\
A2 FD A2 FD|EGAB cBcA|G2 EC G2 EC|EGAB c2 Bc|
A2 FD A2 FD|EGAB c2 Bc|dBcA BGAF|GBAF D2::FG|
Addd dcAG|FDAB c2 BA|G2 EC G2 EC|EGAB c2 Bc|
Addd dcAG|FGAB cBce|dBcA BGAF|GBAF D2:|
